!!!COM: Mendelssohn, Felix
!!!CDT: 1809/02/03-1847/11/04
!!!OPR: Sechs vierstimmige Lieder
!!!OTL: Die Waldvögelein
!!!OPS: Op. 88
!!!ONM: Nr. 4
!!!OMD: Allegro assai
!!!COM: Felix Mendelssohn Bartholdy
!!!OTL: Die Waldvögelein
**kern	**text	**text	**text	**dynam	**kern	**text	**text	**text	**dynam	**kern	**text	**text	**text	**dynam	**kern	**text	**text	**text	**dynam
*part4	*part4	*part4	*part4	*part4	*part3	*part3	*part3	*part3	*part3	*part2	*part2	*part2	*part2	*part2	*part1	*part1	*part1	*part1	*part1
*staff4	*staff4	*staff4	*staff4	*	*staff3	*staff3	*staff3	*staff3	*	*staff2	*staff2	*staff2	*staff2	*	*staff1	*staff1	*staff1	*staff1	*
*I"Bass	*	*	*	*	*I"Tenor	*	*	*	*	*I"Alt	*	*	*	*	*I"Sopran	*	*	*	*
*clefF4	*	*	*	*	*clefGv2	*	*	*	*	*clefG2	*	*	*	*	*clefG2	*	*	*	*
*k[b-]	*	*	*	*	*k[b-]	*	*	*	*	*k[b-]	*	*	*	*	*k[b-]	*	*	*	*
*M4/4	*	*	*	*	*M4/4	*	*	*	*	*M4/4	*	*	*	*	*M4/4	*	*	*	*
*met(c)	*	*	*	*	*met(c)	*	*	*	*	*met(c)	*	*	*	*	*met(c)	*	*	*	*
=	=	=	=	=	=	=	=	=	=	=	=	=	=	=	=	=	=	=	=
4r	.	.	.	.	4r	.	.	.	.	4a	1.Kommt,	2.Wohl	3.Wohl	sf f	4cc	1.Kommt,	2.Wohl	3.Wohl	sf f
=1	=1	=1	=1	=1	=1	=1	=1	=1	=1	=1	=1	=1	=1	=1	=1	=1	=1	=1	=1
1r	.	.	.	.	1r	.	.	.	.	8f	lasst	dem,	je-	.	8a	lasst	dem,	je-	.
.	.	.	.	.	.	.	.	.	.	8g	uns	der	-dem,	.	8b-	uns	der	-dem,	.
.	.	.	.	.	.	.	.	.	.	8a	geh’n	frei	der	.	8cc	geh’n	frei	der	.
.	.	.	.	.	.	.	.	.	.	8b-	spa-	kann	frei	.	8dd	spa-	kann	frei	.
.	.	.	.	.	.	.	.	.	.	(8aL	-zie-	sin-	le-	.	(8ccL	-zie-	sin-	le-	.
.	.	.	.	.	.	.	.	.	.	8ccJ)	.	.	.	.	8ffJ)	.	.	.	.
.	.	.	.	.	.	.	.	.	.	8ff	-ren	-gen,	-bet	.	8aa	-ren	-gen,	-bet	.
.	.	.	.	.	.	.	.	.	.	8cc	durch	wie	wie	.	8ff	durch	wie	wie	.
=2	=2	=2	=2	=2	=2	=2	=2	=2	=2	=2	=2	=2	=2	=2	=2	=2	=2	=2	=2
2r	.	.	.	.	2r	.	.	.	.	8a	den	du,	du,	.	8cc	den	du,	du,	.
.	.	.	.	.	.	.	.	.	.	8f	viel-	du	du	.	8a	viel-	du	du	.
.	.	.	.	.	.	.	.	.	.	8g	-grü-	Volk	leich-	.	8b-	-grü-	Volk	leich-	.
.	.	.	.	.	.	.	.	.	.	8b-	-nen	der	-te	.	8dd	-nen	der	-te	.
4r	.	.	.	.	4r	.	.	.	.	(2a	Wald,	Luft,	Schar,	.	(2cc	Wald,	Luft,	Schar,	.
4A	1.Kommt,	2.Wohl	3.Wohl	sf f	4c	1.Kommt,	2.Wohl	3.Wohl	sf f	.	.	.	.	.	.	.	.	.	.
=3	=3	=3	=3	=3	=3	=3	=3	=3	=3	=3	=3	=3	=3	=3	=3	=3	=3	=3	=3
8F	lasst	dem,	je-	.	8A	lasst	dem,	je-	.	(1f)	.	.	.	.	(1ff)	.	.	.	.
8G	uns	der	-dem,	.	8B-	uns	der	-dem,	.	.	.	.	.	.	.	.	.	.	.
8A	geh’n	frei	der	.	8c	geh’n	frei	der	.	.	.	.	.	.	.	.	.	.	.
8B-	spa-	kann	frei	.	8d	spa-	kann	frei	.	.	.	.	.	.	.	.	.	.	.
(8AL	-zie-	sin-	le-	.	(8cL	-zie-	sin-	le-	.	.	.	.	.	.	.	.	.	.	.
8cJ)	.	.	.	.	8fJ)	.	.	.	.	.	.	.	.	.	.	.	.	.	.
8f	-ren	-gen,	-bet	.	8a	-ren	-gen,	-bet	.	.	.	.	.	.	.	.	.	.	.
8c	durch	wie	wie	.	8f	durch	wie	wie	.	.	.	.	.	.	.	.	.	.	.
=4	=4	=4	=4	=4	=4	=4	=4	=4	=4	=4	=4	=4	=4	=4	=4	=4	=4	=4	=4
8A	den	du,	du,	.	8c	den	du,	du,	.	4f)	.	.	.	.	4ff)	.	.	.	.
8F	viel-	du	du	.	8A	viel-	du	du	.	.	.	.	.	.	.	.	.	.	.
8G	-grü-	Volk	leich-	.	8B-	-grü-	Volk	leich-	.	4r	.	.	.	.	4r	.	.	.	.
8B-	-nen	der	-te	.	8d	-nen	der	-te	.	.	.	.	.	.	.	.	.	.	.
4.A	Wald!	Luft,	Schar,	.	4.c	Wald!	Luft,	Schar,	.	4r	.	.	.	.	4r	.	.	.	.
.	.	.	.	.	.	.	.	.	.	8r	.	.	.	.	8r	.	.	.	.
8F	die	und	in	p	8c	die	und	in	p	8f	die	und	in	p	8a	die	und	in	p
=5	=5	=5	=5	=5	=5	=5	=5	=5	=5	=5	=5	=5	=5	=5	=5	=5	=5	=5	=5
8D	Vö-	sei-	Trost	.	8Bn	Vö-	sei-	Trost	.	8f	Vö-	sei-	Trost	.	8g	Vö-	sei-	Trost	.
8D	-gel	-ne	und	.	8c	-gel	-ne	und	.	8f	-gel	-ne	und	.	8a	-gel	-ne	und	.
8D	mu-	Stim-	Frie-	.	8B	mu-	Stim-	Frie-	.	8f	mu-	Stim-	Frie-	.	8g	mu-	Stim-	Frie-	.
8D	-si-	-me	-den	.	8c	-si-	-me	-den	.	8f	-si-	-me	-den	.	8a	-si-	-me	-den	.
4D	-zie-	schwin-	schwe-	.	4B	-zie-	schwin-	schwe-	.	4f	-zie-	schwin-	schwe-	.	(8gL	-zie-	schwin-	schwe-	.
.	.	.	.	.	.	.	.	.	.	.	.	.	.	.	8ddJ)	.	.	.	.
8D	-ren,	-gen	-bet	.	8B	-ren,	-gen	-bet	.	8f	-ren,	-gen	-bet	.	8g	-ren,	-gen	-bet	.
8D	dass	zu	und	.	8c	dass	zu	und	.	8f	dass	zu	und	.	8a	dass	zu	und	.
=6	=6	=6	=6	=6	=6	=6	=6	=6	=6	=6	=6	=6	=6	=6	=6	=6	=6	=6	=6
8D	Berg	der,	au-	.	8Bn	Berg	der,	au-	.	8f	Berg	der,	au-	.	8g	Berg	der,	au-	.
8D	und	auf	-ßer	.	8c	und	auf	-ßer	.	8f	und	auf	-ßer	.	8a	und	auf	-ßer	.
8D	Tal	die	al-	.	8B	Tal	die	al-	.	8f	Tal	die	al-	.	8g	Tal	die	al-	.
8D	er-	er	-ler	.	8c	er-	er	-ler	.	8f	er-	er	-ler	.	8a	er-	er	-ler	.
2D	-schallt,	hofft,	Fahr,	.	2B	-schallt,	hofft,	Fahr,	.	4.f	-schallt,	hofft,	Fahr,	.	4.g	-schallt,	hofft,	Fahr,	.
.	.	.	.	.	.	.	.	.	.	8f	die	und	in	f	8g	die	und	in	f
=7	=7	=7	=7	=7	=7	=7	=7	=7	=7	=7	=7	=7	=7	=7	=7	=7	=7	=7	=7
2r	.	.	.	.	2r	.	.	.	.	8f	Vö-	sei-	Trost	.	8g	Vö-	sei-	Trost	.
.	.	.	.	.	.	.	.	.	.	8f	-gel	-ne	und	.	8g	-gel	-ne	und	.
.	.	.	.	.	.	.	.	.	.	8d	mu-	Stim-	Frie-	.	8bn	mu-	Stim-	Frie-	.
.	.	.	.	.	.	.	.	.	.	8f	-si-	-me	-den	.	8dd	-si-	-me	-den	.
4r	.	.	.	.	4r	.	.	.	.	(8eL	-zie-	schwin-	schwe-	.	(8ccL	-zie-	schwin-	schwe-	.
.	.	.	.	.	.	.	.	.	.	8gJ)	.	.	.	.	8eeJ)	.	.	.	.
8r	.	.	.	.	8r	.	.	.	.	4cc	-ren,	-gen	-bet	.	[4gg	-ren,	-gen	-bet	.
8E	.	.	.	f	8G	die	und	in	f	.	.	.	.	.	.	.	.	.	.
=8	=8	=8	=8	=8	=8	=8	=8	=8	=8	=8	=8	=8	=8	=8	=8	=8	=8	=8	=8
8F	.	.	.	.	8G	Vö-	sei-	Trost	.	2r	.	.	.	.	(2gg]	.	.	.	.
8F	.	.	.	.	8G	-gel	-ne	und	.	.	.	.	.	.	.	.	.	.	.
8D	.	.	.	.	8Bn	mu-	Stim-	Frie-	.	.	.	.	.	.	.	.	.	.	.
8F	.	.	.	.	8d	-si-	-me	-den	.	.	.	.	.	.	.	.	.	.	.
(8EL	.	.	.	.	(8cL	-zie-	schwin-	schwe-	.	4r	.	.	.	.	4gg)	.	.	.	.
8GJ)	.	.	.	.	8eJ)	.	.	.	.	.	.	.	.	.	.	.	.	.	.
[4c	.	.	.	.	[4g	-ren,	-gen	-bet	.	8r	.	.	.	.	8r	.	.	.	.
.	.	.	.	.	.	.	.	.	.	8b-X	dass	zu	und	.	8cc	dass	zu	und	.
=9	=9	=9	=9	=9	=9	=9	=9	=9	=9	=9	=9	=9	=9	=9	=9	=9	=9	=9	=9
2.c]	.	.	.	.	4g]	.	.	.	.	8b-	Berg	der,	au-	.	8cc	Berg	der,	au-	.
.	.	.	.	.	.	.	.	.	.	8b-	und	auf	-ßer	.	8cc	und	auf	-ßer	.
.	.	.	.	.	4r	.	.	.	.	8g	Tal	die	al-	.	8ee	Tal	die	al-	.
.	.	.	.	.	.	.	.	.	.	8b-	er-	er	-ler	.	8gg	er-	er	-ler	.
.	.	.	.	.	4r	.	.	.	.	(4a	-schallt,	hofft,	Fahr,	.	(8ffL	-schallt,	hofft,	Fahr,	.
.	.	.	.	.	.	.	.	.	.	.	.	.	.	.	8aaJ	.	.	.	.
8r	.	.	.	.	8r	.	.	.	.	[4cc)	.	.	.	.	[4cc)	.	.	.	.
8A	dass	zu	und	.	8c	dass	zu	und	.	.	.	.	.	.	.	.	.	.	.
=10	=10	=10	=10	=10	=10	=10	=10	=10	=10	=10	=10	=10	=10	=10	=10	=10	=10	=10	=10
8B-	Berg	der,	au-	.	8c	Berg	der,	au-	.	(2cc]	.	.	.	.	(2cc]	.	.	.	.
8B-	und	auf	-ßer	.	8c	und	auf	-ßer	.	.	.	.	.	.	.	.	.	.	.
8G	Tal	die	al-	.	8e	Tal	die	al-	.	.	.	.	.	.	.	.	.	.	.
8B-	er-	er	-ler	.	8g	er-	er	-ler	.	.	.	.	.	.	.	.	.	.	.
4.A	-schallt,	hofft,	Fahr,	.	[2f	-schallt,	hofft,	Fahr,	.	4cc)	.	.	.	.	4cc)	.	.	.	.
.	.	.	.	.	.	.	.	.	.	8r	.	.	.	.	8r	.	.	.	.
8A	dass	zu	und	f	.	.	.	.	.	8f	dass	zu	und	f	8f	dass	zu	und	f
=11	=11	=11	=11	=11	=11	=11	=11	=11	=11	=11	=11	=11	=11	=11	=11	=11	=11	=11	=11
4B-	Berg	der,	au	.	4f]	.	.	.	.	4b-	Berg	der,	au-	.	4dd	Berg	der,	au-	.
4B-	und	auf	ßer	.	4f	und	auf	aus	f	4b-	und	auf	-ßer	.	4dd	und	auf	-ßer	.
4B-	Tal	die	al-	.	4f	Tal	die	al-	.	4b-	Tal	die	al-	.	4dd	Tal	die	al-	.
4B-	er-	er	-ler	.	4f	er-	er	-ler	.	4b-	er-	er	-ler	.	4dd	er-	er	-ler	.
=12	=12	=12	=12	=12	=12	=12	=12	=12	=12	=12	=12	=12	=12	=12	=12	=12	=12	=12	=12
2BB-;	-schallt,	hofft,	Fahr,	.	2d;	-schallt,	hofft,	Fahr,	.	2b-;	-schallt,	hofft,	Fahr,	.	[2ff;	-schallt,	hofft,	Fahr,	.
2r	.	.	.	.	2r	.	.	.	.	2r	.	.	.	.	8ff]	.	.	.	.
.	.	.	.	.	.	.	.	.	.	.	.	.	.	.	8ff	dass	zu	aus	p
.	.	.	.	.	.	.	.	.	.	.	.	.	.	.	8dd	Berg	der,	al-	.
.	.	.	.	.	.	.	.	.	.	.	.	.	.	.	8b-	und	auf	-ler	.
=13	=13	=13	=13	=13	=13	=13	=13	=13	=13	=13	=13	=13	=13	=13	=13	=13	=13	=13	=13
8r	.	.	.	.	8r	.	.	.	.	8r	.	.	.	.	4.g	Tal,	die,	Fahr,	.
8B-	dass	zu	und	p	8d	dass	zu	und	p	8f	dass	zu	und	p	.	.	.	.	.
8B-	Berg	der,	au-	.	8c	Berg	der,	au-	.	8e	Berg	der,	au-	.	.	.	.	.	.
8B-	und	auf	-ßer	.	8c	und	auf	-ßer	.	8e	und	auf	-ßer	.	8dd	und	auf	aus	.
4A	Tal	die	al-	.	4c	Tal	die	al-	.	4f	Tal	die	al-	.	(8ccL	Tal	die	-al-	.
.	.	.	.	.	.	.	.	.	.	.	.	.	.	.	8fJ)	.	.	.	.
4G	er-	er	-ler	.	4c	er-	er	-ler	.	4c	er-	er	-ler	.	(8eL	er-	-er	-ler	.
.	.	.	.	.	.	.	.	.	.	.	.	.	.	.	8b-J)	.	.	.	.
=14	=14	=14	=14	=14	=14	=14	=14	=14	=14	=14	=14	=14	=14	=14	=14	=14	=14	=14	=14
4.F	-schallt,	hofft,	Fahr,	.	4.c	-schallt,	hofft,	Fahr,	.	4.f	-schallt,	hofft,	Fahr,	.	4.a	-schallt,	hofft,	Fahr,	.
8D	dass	zu	und	f	8c	dass	zu	und	f	8f	dass	zu	und	f	8f	dass	zu	und	f
4G	Berg	der,	au-	.	4Bn	Berg	der,	au-	.	4f	Berg	der,	au-	.	4dd	Berg	der,	au-	.
4G	und	auf	-ßer	.	4B	und	auf	-ßer	.	4f	und	auf	-ßer	.	4dd	und	auf	-ßer	.
=15	=15	=15	=15	=15	=15	=15	=15	=15	=15	=15	=15	=15	=15	=15	=15	=15	=15	=15	=15
4G	Tal	die	al-	.	4Bn	Tal	die	al-	.	4f	Tal	die	al-	.	4dd	Tal	die	al-	.
4G	er-	er	-ler	.	4B	er-	er	-ler	.	4f	er-	er	-ler	.	4dd	er-	er	-ler	.
[2GG [2G	-schallt,	hofft,	Fahr,	.	[2B	-schallt,	hofft,	Fahr,	.	[2f	-schallt,	hofft,	Fahr,	.	[2gg	-schallt,	hofft,	Fahr,	.
=16	=16	=16	=16	=16	=16	=16	=16	=16	=16	=16	=16	=16	=16	=16	=16	=16	=16	=16	=16
2GG;] 2G]	.	.	.	.	2B;]	.	.	.	.	2f;]	.	.	.	.	2gg;]	.	.	.	.
2r	.	.	.	.	2r	.	.	.	.	2r	.	.	.	.	8r	.	.	.	.
.	.	.	.	.	.	.	.	.	.	.	.	.	.	.	8ff	dass	zu	aus	p
.	.	.	.	.	.	.	.	.	.	.	.	.	.	.	8ee	Berg	der,	al-	.
.	.	.	.	.	.	.	.	.	.	.	.	.	.	.	8dd	und	auf	-ler	.
=17	=17	=17	=17	=17	=17	=17	=17	=17	=17	=17	=17	=17	=17	=17	=17	=17	=17	=17	=17
8r	.	.	.	.	8r	.	.	.	.	8r	.	.	.	.	4.cc	Tal,	die,	Fahr,	.
8B-	dass	zu	und	p	8c	dass	zu	und	p	8e	dass	zu	und	p	.	.	.	.	.
8A	Berg	der,	au-	.	8c	Berg	der,	au-	.	8f	Berg	der,	au-	.	.	.	.	.	.
8B-	und	auf	-ßer	.	8d	und	auf	-ßer	.	8g	und	auf	-ßer	.	8ff	und	auf	aus	.
4c	Tal	die	al-	.	4c	Tal	die	al-	.	4f	Tal	die	al-	.	(8ccL	-Tal	die	al-	.
.	.	.	.	.	.	.	.	.	.	.	.	.	.	.	8aJ)	.	.	.	.
4C	er-	er	-ler	.	4B-	er-	er	-ler	.	4e	er-	er	-ler	.	(8gL	er-	er	-ler	.
.	.	.	.	.	.	.	.	.	.	.	.	.	.	.	8aJ)	.	.	.	.
=18	=18	=18	=18	=18	=18	=18	=18	=18	=18	=18	=18	=18	=18	=18	=18	=18	=18	=18	=18
4.F	-schallt,	hofft,	Fahr,	.	4.A	-schallt,	hofft,	Fahr,	.	4.f	-schallt,	hofft,	Fahr,	.	4f	-schallt,	hofft,	Fahr,	.
.	.	.	.	.	.	.	.	.	.	.	.	.	.	.	4r	.	.	.	.
8F	die	und	in	pp	8A	die	und	in	pp	8c	die	und	in	pp	.	.	.	.	.
8F	Vö-	sei-	Trost	.	8B-	Vö-	sei-	Trost	.	8c	Vö-	sei-	Trost	.	4r	.	.	.	.
8F	-gel	-ne	und	.	8B-	-gel	-ne	und	.	8d	-gel	-ne	und	.	.	.	.	.	.
8F	mu-	Stim-	Frie-	.	8B-	mu-	Stim-	Frie-	.	8c	mu-	Stim-	Frie-	.	4e	die	und	in	pp
8F	-si-	-me	-den	.	8B-	-si-	-me	-den	.	8d	-si-	-me	-den	.	.	.	.	.	.
=19	=19	=19	=19	=19	=19	=19	=19	=19	=19	=19	=19	=19	=19	=19	=19	=19	=19	=19	=19
4F	-zie-	schwin-	schwe-	.	4A	-zie-	schwin-	schwe-	.	(8cL	-zie-	schwin-	schwe-	.	4f	Vö-	sei-	Trost	.
.	.	.	.	.	.	.	.	.	.	8fJ)	.	.	.	.	.	.	.	.	.
8F	-ren,	-gen,	-bet,	.	8A	-ren,	-gen,	-bet,	.	8c	-ren,	-gen,	-bet,	.	4a	-gel	-ne	und	.
8F	die	und	in	.	8A	die	und	in	.	8d	die	und	in	.	.	.	.	.	.
8F	Vö-	sei-	Trost	.	8B-	Vö-	sei-	Trost	.	8c	Vö-	sei-	Trost	.	4cc	mu-	Stim-	Frie-	.
8F	-gel	-ne	und	.	8B-	-gel	-ne	und	.	8d	-gel	-ne	und	.	.	.	.	.	.
8F	mu-	Stim-	Frie-	.	8B-	mu-	Stim-	Frie-	.	8c	mu-	Stim-	Frie-	.	4ee	-si-	-me	-den	.
8F	-si-	-me	-den	.	8B-	-si-	-me	-den	.	8d	-si-	-me	-den	.	.	.	.	.	.
=20	=20	=20	=20	=20	=20	=20	=20	=20	=20	=20	=20	=20	=20	=20	=20	=20	=20	=20	=20
4F	-zie-	schwin-	schwe-	.	4A	-zie-	schwin-	schwe-	.	(8cL	-zie-	schwin-	schwe-	.	(4ff	-zie-	schwin-	schwe-	.
.	.	.	.	.	.	.	.	.	.	8fJ)	.	.	.	.	.	.	.	.	.
8F	-ren,	-gen	-bet	.	8A	-ren,	-gen	-bet	.	8c	-ren,	-gen	-bet	.	4aa)	.	.	.	.
8F	dass	zu	aus	.	8A	dass	zu	aus	.	8d	dass	zu	aus	.	.	.	.	.	.
4F	Berg	der,	al-	.	4B-	Berg	der,	al-	.	(8cL	Berg	der,	al-	.	4cc	-ren,	-gen	-bet	.
.	.	.	.	.	.	.	.	.	.	8dJ)	.	.	.	.	.	.	.	.	.
4F	und	auf	-ler	.	4B-	und	auf	-ler	.	(8cL	und	auf	-ler	.	4ee	dass	zu	und	.
.	.	.	.	.	.	.	.	.	.	8dJ)	.	.	.	.	.	.	.	.	.
=21	=21	=21	=21	=21	=21	=21	=21	=21	=21	=21	=21	=21	=21	=21	=21	=21	=21	=21	=21
4F	Tal,	die,	Fahr,	.	4A	Tal,	die,	Fahr,	.	4c	Tal,	die,	Fahr,	.	4ff	Berg	der,	au-	.
4A	und	auf	aus	.	4c	und	auf	aus	.	4f	und	auf	aus	.	4cc	und	auf	-ßer	.
4C	Tal	die	al-	.	4c	Tal	die	al-	.	4f	Tal	die	al-	.	4.a	Tal	die	al-	.
4C	er-	er	-ler	.	4B-	er-	er	-ler	.	4e	er-	er	-ler	.	.	.	.	.	.
.	.	.	.	.	.	.	.	.	.	.	.	.	.	.	8g	er-	er	-ler	.
=22	=22	=22	=22	=22	=22	=22	=22	=22	=22	=22	=22	=22	=22	=22	=22	=22	=22	=22	=22
2.F;	-schallt.	hofft.	Fahr.	.	2.A;	-schallt.	hofft.	Fahr.	.	2.f;	-schallt.	hofft.	Fahr.	.	2.f;	-schallt.	hofft.	Fahr.	.
==	==	==	==	==	==	==	==	==	==	==	==	==	==	==	==	==	==	==	==
*-	*-	*-	*-	*-	*-	*-	*-	*-	*-	*-	*-	*-	*-	*-	*-	*-	*-	*-	*-
!!!system-decoration: ([s1,s2,s3,s4])
!!!RDF**kern: i = editorial accidental
!!!AGN: Choral
!!!YOR: https://mdz-nbn-resolving.de/details:bsb00026635
!!!YOO: München, Bayerische Staatsbibliothek
!!!URL-scan: https://www.digitale-sammlungen.de/de/view/bsb00026635?page=6
!!!EED: Wolfgang Drescher
!!!END: 2024/11/15
!!!ENC: Wolfgang Drescher
!!!EEV: 2024/11/15
!!!title: @{OPS} @{ONM}. @{OTL}